flaticon/emoticons/smug-5.svg

<svg xmlns="http://www.w3.org/2000/svg" width="32" height="32" viewBox="0 0 24 24">
    <path d="M 12 0 C 6.054688 0 1.21875 4.835938 1.21875 10.78125 L 1.21875 15.246094 C 1.21875 15.25 1.21875 15.25 1.21875 15.25 C 1.21875 15.25 1.21875 15.253906 1.21875 15.253906 L 1.21875 20.746094 C 1.21875 21.867188 2.132812 22.78125 3.253906 22.78125 L 5.917969 22.78125 C 5.9375 22.789062 5.957031 22.796875 5.976562 22.804688 C 7.402344 23.476562 9.121094 23.878906 11.078125 23.976562 C 11.121094 23.976562 11.164062 23.980469 11.210938 23.980469 C 11.46875 23.992188 11.730469 24 12 24 C 12.269531 24 12.53125 23.992188 12.792969 23.980469 C 12.835938 23.980469 12.878906 23.976562 12.921875 23.976562 C 14.878906 23.878906 16.597656 23.476562 18.023438 22.804688 C 18.042969 22.796875 18.0625 22.789062 18.082031 22.777344 L 20.746094 22.777344 C 21.867188 22.777344 22.78125 21.867188 22.78125 20.746094 L 22.78125 10.78125 C 22.78125 4.835938 17.945312 0 12 0 Z M 17.894531 21.964844 L 17.8125 22.007812 C 16.660156 22.566406 15.289062 22.929688 13.777344 23.089844 C 13.667969 23.101562 13.558594 23.113281 13.445312 23.125 C 13.285156 23.136719 13.125 23.148438 12.960938 23.15625 C 12.648438 23.175781 12.328125 23.1875 12 23.1875 C 11.671875 23.1875 11.351562 23.175781 11.039062 23.15625 C 10.875 23.148438 10.714844 23.136719 10.554688 23.121094 C 10.441406 23.113281 10.332031 23.101562 10.222656 23.089844 C 8.710938 22.929688 7.339844 22.566406 6.1875 22.007812 L 6.105469 21.964844 L 6.066406 21.964844 C 3.476562 20.65625 2.035156 18.34375 2.035156 15.253906 C 2.035156 15.253906 2.035156 15.25 2.035156 15.25 C 2.035156 15.25 2.035156 15.25 2.035156 15.246094 C 2.039062 10.019531 6.425781 5.550781 11.796875 5.289062 L 12.183594 5.289062 C 17.578125 5.550781 21.964844 10.023438 21.964844 15.253906 C 21.964844 18.34375 20.523438 20.65625 17.933594 21.964844 Z M 3.253906 21.964844 C 2.582031 21.964844 2.035156 21.417969 2.035156 20.746094 L 2.035156 19.027344 C 2.597656 20.195312 3.441406 21.1875 4.535156 21.964844 Z M 21.964844 20.746094 C 21.964844 21.417969 21.417969 21.964844 20.746094 21.964844 L 19.464844 21.964844 C 20.558594 21.1875 21.402344 20.195312 21.964844 19.027344 Z M 12.203125 4.472656 L 11.777344 4.476562 C 7.390625 4.691406 3.625 7.492188 2.035156 11.28125 L 2.035156 10.78125 C 2.035156 5.285156 6.503906 0.8125 12 0.8125 C 17.496094 0.8125 21.964844 5.285156 21.964844 10.78125 L 21.964844 11.265625 C 20.371094 7.484375 16.601562 4.6875 12.203125 4.472656 Z M 12.203125 4.472656"/>
    <path d="M10.925781 13.550781C11.511719 14.796875 12.773438 15.660156 14.238281 15.660156 16.253906 15.660156 17.898438 14.019531 17.898438 12 17.898438 9.980469 16.253906 8.339844 14.238281 8.339844 12.773438 8.339844 11.511719 9.203125 10.925781 10.449219 10.417969 9.667969 9.539062 9.152344 8.542969 9.152344 6.972656 9.152344 5.695312 10.429688 5.695312 12 5.695312 13.570312 6.972656 14.847656 8.542969 14.847656 9.539062 14.847656 10.417969 14.332031 10.925781 13.550781zM14.238281 14.847656C12.886719 14.847656 11.757812 13.902344 11.464844 12.640625L16.613281 10.4375C16.910156 10.886719 17.085938 11.421875 17.085938 12 17.085938 13.570312 15.808594 14.847656 14.238281 14.847656zM14.238281 9.152344C14.921875 9.152344 15.546875 9.394531 16.039062 9.796875L11.402344 11.785156C11.511719 10.316406 12.738281 9.152344 14.238281 9.152344zM8.542969 9.964844C9.601562 9.964844 10.464844 10.785156 10.558594 11.820312L7.105469 10.5625C7.472656 10.195312 7.980469 9.964844 8.542969 9.964844zM6.507812 12C6.507812 11.738281 6.5625 11.492188 6.652344 11.265625L10.460938 12.648438C10.1875 13.453125 9.433594 14.035156 8.542969 14.035156 7.421875 14.035156 6.507812 13.121094 6.507812 12zM17.898438 15.253906C17.671875 15.253906 17.492188 15.4375 17.492188 15.660156 17.492188 15.886719 17.671875 16.066406 17.898438 16.066406 18.023438 16.066406 18.140625 16.09375 18.253906 16.128906 17.289062 17.878906 15.722656 19.175781 13.808594 19.777344 12.003906 20.347656 10.097656 20.230469 8.378906 19.46875 8.550781 19.378906 8.742188 19.320312 8.949219 19.320312 9.171875 19.320312 9.355469 19.140625 9.355469 18.914062 9.355469 18.691406 9.171875 18.507812 8.949219 18.507812 7.828125 18.507812 6.914062 19.421875 6.914062 20.542969 6.914062 20.765625 7.097656 20.949219 7.320312 20.949219 7.546875 20.949219 7.730469 20.765625 7.730469 20.542969 7.730469 20.390625 7.761719 20.246094 7.8125 20.109375 8.976562 20.667969 10.222656 20.953125 11.484375 20.953125 12.34375 20.953125 13.210938 20.820312 14.054688 20.554688 16.132812 19.898438 17.84375 18.5 18.914062 16.609375 19.042969 16.804688 19.117188 17.039062 19.117188 17.289062 19.117188 17.511719 19.300781 17.695312 19.527344 17.695312 19.75 17.695312 19.933594 17.511719 19.933594 17.289062 19.933594 16.167969 19.019531 15.253906 17.898438 15.253906zM17.898438 15.253906"/>
    <path d="M9.355469 12.8125C9.355469 13.039062 9.171875 13.21875 8.949219 13.21875 8.722656 13.21875 8.542969 13.039062 8.542969 12.8125 8.542969 12.589844 8.722656 12.40625 8.949219 12.40625 9.171875 12.40625 9.355469 12.589844 9.355469 12.8125zM13.832031 13.015625C13.832031 13.355469 13.558594 13.628906 13.21875 13.628906 12.882812 13.628906 12.609375 13.355469 12.609375 13.015625 12.609375 12.679688 12.882812 12.40625 13.21875 12.40625 13.558594 12.40625 13.832031 12.679688 13.832031 13.015625zM13.832031 13.015625"/>
</svg>

<svg xmlns="http://www.w3.org/2000/svg" width="32" height="32" viewBox="0 0 24 24">
    <path d="M12 0C6.055 0 1.219 4.836 1.219 10.781v9.965c0 1.121.914 2.035 2.035 2.035h2.664l.059.024c1.425.672 3.144 1.074 5.101 1.172.043 0 .086.003.133.003.258.012.52.02.789.02.27 0 .531-.008.793-.02l.129-.003c1.957-.098 3.676-.5 5.101-1.172.02-.008.04-.016.059-.028h2.664c1.121 0 2.035-.91 2.035-2.03V10.78C22.781 4.836 17.945 0 12 0zm5.895 21.965l-.082.043c-1.153.558-2.524.922-4.036 1.082l-.332.035c-.16.012-.32.023-.484.031a15.386 15.386 0 0 1-2.406-.035c-.114-.008-.223-.02-.332-.031-1.512-.16-2.883-.524-4.036-1.082l-.082-.043h-.039c-2.59-1.309-4.03-3.621-4.03-6.711v-.004-.004c.003-5.226 4.39-9.695 9.76-9.957h.388c5.394.262 9.78 4.734 9.78 9.965 0 3.09-1.44 5.402-4.03 6.71zm-14.641 0a1.22 1.22 0 0 1-1.219-1.219v-1.719a7.663 7.663 0 0 0 2.5 2.938zm18.71-1.219a1.22 1.22 0 0 1-1.218 1.219h-1.281a7.663 7.663 0 0 0 2.5-2.938zm-9.76-16.273l-.427.004c-4.386.214-8.152 3.015-9.742 6.804v-.5C2.035 5.285 6.504.812 12 .812c5.496 0 9.965 4.473 9.965 9.97v.484c-1.594-3.782-5.363-6.579-9.762-6.793zm0 0"/>
    <path d="M10.926 13.55a3.66 3.66 0 0 0 3.312 2.11c2.016 0 3.66-1.64 3.66-3.66 0-2.02-1.644-3.66-3.66-3.66a3.66 3.66 0 0 0-3.312 2.11 2.84 2.84 0 0 0-2.383-1.298A2.85 2.85 0 0 0 5.695 12a2.85 2.85 0 0 0 2.848 2.848 2.84 2.84 0 0 0 2.383-1.297zm3.312 1.298a2.852 2.852 0 0 1-2.773-2.207l5.148-2.204c.297.45.473.985.473 1.563a2.85 2.85 0 0 1-2.848 2.848zm0-5.696c.684 0 1.309.243 1.801.645l-4.637 1.988a2.847 2.847 0 0 1 2.836-2.633zm-5.695.813c1.059 0 1.922.82 2.016 1.855l-3.454-1.258a2.028 2.028 0 0 1 1.438-.597zM6.508 12c0-.262.054-.508.144-.734l3.809 1.382a2.032 2.032 0 0 1-1.918 1.387A2.039 2.039 0 0 1 6.508 12zm0 0M17.898 15.254a.406.406 0 1 0 0 .812c.125 0 .243.028.356.063a7.678 7.678 0 0 1-4.445 3.648 7.637 7.637 0 0 1-5.43-.308c.172-.09.363-.149.57-.149a.406.406 0 1 0 0-.812 2.039 2.039 0 0 0-2.035 2.035.408.408 0 0 0 .816 0c0-.152.032-.297.082-.434a8.461 8.461 0 0 0 3.672.844c.86 0 1.727-.133 2.57-.398a8.494 8.494 0 0 0 4.86-3.946c.129.196.203.43.203.68a.408.408 0 0 0 .816 0 2.039 2.039 0 0 0-2.035-2.035zm0 0"/>
    <path d="M9.355 12.813a.406.406 0 1 1-.811 0 .406.406 0 0 1 .811 0zm0 0M13.832 13.016a.612.612 0 1 1-1.224.003.612.612 0 0 1 1.224-.003zm0 0"/>
</svg>
